img/svgicons/nuts.svg

<svg width="67" height="76" viewBox="0 0 67 76" fill="none" xmlns="http://www.w3.org/2000/svg">
<g clip-path="url(#clip0_165_23)">
<path d="M10.4982 31.4445C12.1896 27.0776 14.2535 22.9609 17.2608 19.3621C22.4599 13.1367 29.0796 10.2627 37.1377 10.8841C39.1969 11.0335 41.1192 10.8427 42.778 9.35545C43.7702 8.46205 44.8803 8.74549 45.5429 9.92275C46.0472 10.8212 46.4336 11.7646 46.9174 12.6731C47.7758 14.3144 48.9796 15.6974 50.4475 16.811C57.9246 22.3755 60.3948 29.9473 58.5043 38.9428C56.5639 48.1791 52.1841 56.256 45.5414 62.9595C41.0268 67.5131 35.5576 69.7725 29.1057 68.9879C27.5207 68.7971 25.9604 68.3397 24.4038 67.9695C23.3187 67.712 22.2558 67.3418 21.1609 67.0636C13.709 65.1906 9.5505 60.2659 8.16792 52.7976C7.37439 48.4771 7.70058 44.1681 8.52505 39.895C9.07113 37.0565 9.82528 34.2561 10.4982 31.4445ZM43.3807 11.6821C43.2896 11.6503 43.2137 11.6239 43.1279 11.5768C41.2591 12.836 39.1689 13.02 37.0133 12.8542C33.2816 12.5696 29.6693 13.0666 26.2667 14.7208C21.5664 16.9727 18.2422 20.6504 15.6838 25.1111C12.6012 30.4906 10.9207 36.3413 10.0807 42.4675C9.48932 46.8046 9.45332 51.1115 10.8754 55.2895C12.6661 60.5596 16.1672 63.9991 21.6764 65.1437C21.9961 65.2035 22.5273 65.096 22.6941 64.8615C24.6119 62.191 25.841 59.2979 25.8259 55.9198C25.7923 50.5906 26.7992 45.4517 29.4628 40.7867C31.0991 37.8977 32.9622 35.1394 34.8656 32.4123C38.0829 27.8197 41.0473 23.1219 42.3003 17.5697C42.7452 15.608 43.0223 13.6395 43.3807 11.6821ZM24.4646 65.8396C24.7121 65.9602 24.8684 66.0491 25.0354 66.1073C31.1873 68.0953 36.9255 67.4096 42.1746 63.3871C45.248 61.0159 47.6494 58.0321 49.689 54.7673C52.8692 49.6456 55.5849 44.2932 56.7081 38.2828C58.1913 30.2123 56.1199 23.4505 49.4068 18.4791C47.8933 17.3496 46.6181 15.9762 45.6168 14.3539C45.463 14.1111 45.3093 13.8682 45.0911 13.5169C45.0199 13.8191 44.9665 13.9725 44.9487 14.1212C44.3109 18.4938 43.1257 22.7273 40.8633 26.5339C38.9255 29.7997 36.826 32.992 34.5809 36.0647C30.1059 42.2153 27.576 48.9404 27.764 56.6121C27.7799 57.4953 27.6073 58.3816 27.4348 59.268C26.9625 61.6504 25.8435 63.7386 24.4646 65.8396Z" fill="white"/>
<path d="M18.9569 35.2172C19.2417 34.0085 19.4962 32.7893 19.7962 31.5859C20.901 27.29 23.2879 23.9569 27.1078 21.6909C27.8173 21.2669 28.4264 21.3758 28.7232 21.8923C29.0299 22.4293 28.7919 22.9659 28.077 23.4052C24.3544 25.6363 22.2675 28.9878 21.4386 33.225C20.7368 36.8525 19.3027 40.1388 16.9136 42.9893C16.6745 43.2846 16.4104 43.554 16.1213 43.7975C15.6359 44.2135 15.1162 44.2389 14.6864 43.7623C14.2816 43.3115 14.3356 42.8141 14.7755 42.3822C16.3021 40.8833 17.3758 39.0718 18.1922 37.1191C18.457 36.5057 18.6359 35.8453 18.8605 35.2008C18.8962 35.196 18.9265 35.2066 18.9569 35.2172Z" fill="white"/>
<path d="M36.2495 22.9651C35.2129 25.3057 33.8349 27.3554 32.2452 29.2797C31.7518 29.865 31.1546 29.9667 30.7087 29.5361C30.2029 29.0329 30.3338 28.5106 30.7441 28.0168C32.0947 26.3879 33.3498 24.6911 34.0653 22.686C34.4119 21.7398 34.5513 20.7042 34.6746 19.7147C34.7563 19.0892 34.9319 18.6341 35.5792 18.5842C36.2569 18.545 36.6777 18.9497 36.6309 19.6217C36.5666 20.7351 36.3853 21.8421 36.2495 22.9651Z" fill="white"/>
<path d="M22.8232 51.5871C22.0327 53.5144 21.0661 55.3116 19.7414 56.9152C19.6013 57.0729 19.4559 57.246 19.3007 57.3984C18.8554 57.8456 18.3546 57.9637 17.8784 57.5225C17.3869 57.0759 17.4669 56.5531 17.8665 56.09C19.9889 53.6629 21.2172 50.8211 21.6621 47.6376C21.7483 47.0481 22.1105 46.6925 22.7204 46.75C23.3455 46.8129 23.695 47.2272 23.5928 47.8627C23.358 49.1232 23.083 50.3525 22.8232 51.5871Z" fill="white"/>
<path d="M50.0869 46.1468C48.6238 50.2492 46.7991 53.1413 43.7424 55.1225C43.2998 55.4157 42.8169 55.6778 42.3152 55.8472C41.8082 56.0319 41.2669 55.8262 41.1638 55.2912C41.1037 54.9261 41.2827 54.2657 41.5496 54.135C46.3203 51.6323 48.0778 47.2711 48.9035 42.3101C48.915 42.2281 48.9266 42.1461 48.9533 42.0693C49.0654 41.4544 49.4079 41.0575 50.058 41.1463C50.7233 41.2404 51.0058 41.7001 50.8724 42.3764C50.5468 43.8978 50.2318 45.3885 50.0869 46.1468Z" fill="white"/>
<path d="M36.3415 55.6936C35.4496 58.2052 34.2147 60.5284 32.6565 62.7046C32.297 63.1989 31.865 63.4614 31.2746 63.1525C30.7699 62.8906 30.6552 62.4377 30.837 61.9159C30.9065 61.7164 31.0671 61.5486 31.192 61.3856C33.5243 57.9647 35.2243 54.3064 35.564 50.1053C35.6029 49.6026 35.5962 49.084 35.6048 48.5707C35.6159 47.9035 35.8727 47.4594 36.5754 47.4461C37.2933 47.438 37.5348 47.9179 37.5647 48.5651C37.6146 50.768 37.2582 52.9154 36.5767 55.0184C36.5019 55.2332 36.4217 55.4634 36.3415 55.6936Z" fill="white"/>
<path d="M47.1876 29.7866C45.6704 33.1645 45.199 36.7174 45.5911 40.3818C45.6747 41.1681 45.3814 41.6682 44.7697 41.7133C44.0153 41.7774 43.7176 41.3124 43.6421 40.6493C43.1828 36.7379 43.6987 32.9596 45.2407 29.315C45.2986 29.1975 45.3717 29.0853 45.435 28.9525C45.7248 28.365 46.1657 28.1745 46.757 28.4321C47.2778 28.6479 47.447 29.1887 47.1876 29.7866Z" fill="white"/>
</g>
<defs>
<clipPath id="clip0_165_23">
<rect width="48.2029" height="62.6638" fill="white" transform="translate(21.1736 0.797607) rotate(19.205)"/>
</clipPath>
</defs>
</svg>

<svg width="67" height="76" fill="none" xmlns="http://www.w3.org/2000/svg"><g clip-path="url(#a)" fill="#fff"><path d="M10.498 31.445c1.692-4.367 3.756-8.484 6.763-12.083 5.199-6.225 11.819-9.1 19.877-8.478 2.059.15 3.981-.041 5.64-1.529.992-.893 2.102-.61 2.765.568.504.898.89 1.842 1.374 2.75.859 1.641 2.063 3.024 3.53 4.138 7.478 5.564 9.948 13.136 8.057 22.132-1.94 9.236-6.32 17.313-12.963 24.017-4.514 4.553-9.983 6.812-16.435 6.028-1.585-.19-3.146-.648-4.702-1.019-1.085-.257-2.148-.627-3.243-.905-7.452-1.873-11.61-6.798-12.993-14.266-.794-4.32-.467-8.63.357-12.903.546-2.839 1.3-5.639 1.973-8.45Zm32.883-19.763c-.091-.032-.167-.058-.253-.105-1.869 1.259-3.96 1.443-6.115 1.277-3.731-.284-7.344.213-10.746 1.867-4.7 2.252-8.025 5.93-10.583 10.39-3.083 5.38-4.763 11.23-5.603 17.357-.592 4.337-.628 8.643.794 12.821 1.791 5.27 5.292 8.71 10.801 9.855.32.06.851-.048 1.018-.282 1.918-2.671 3.147-5.564 3.132-8.942-.034-5.33.973-10.468 3.637-15.133 1.636-2.89 3.5-5.648 5.403-8.375 3.217-4.592 6.181-9.29 7.434-14.842.445-1.962.722-3.93 1.08-5.888ZM24.465 65.84c.247.12.403.21.57.267 6.152 1.988 11.89 1.303 17.14-2.72 3.073-2.371 5.474-5.355 7.514-8.62 3.18-5.121 5.896-10.474 7.02-16.484 1.482-8.07-.59-14.832-7.302-19.804a14.854 14.854 0 0 1-3.79-4.125c-.154-.243-.308-.486-.526-.837-.071.302-.124.456-.142.604-.638 4.373-1.823 8.606-4.086 12.413a119.774 119.774 0 0 1-6.282 9.53c-4.475 6.151-7.005 12.876-6.817 20.548.016.883-.157 1.77-.33 2.656-.472 2.382-1.59 4.47-2.97 6.572Z"/><path d="M18.957 35.217c.285-1.209.54-2.428.84-3.631 1.104-4.296 3.49-7.63 7.31-9.895.71-.424 1.32-.315 1.616.201.307.537.069 1.074-.646 1.513-3.723 2.231-5.81 5.583-6.638 9.82-.702 3.627-2.136 6.914-4.525 9.764-.24.296-.504.565-.793.809-.485.416-1.005.44-1.435-.036-.404-.45-.35-.948.09-1.38 1.526-1.499 2.6-3.31 3.416-5.263.265-.613.444-1.274.668-1.918.036-.005.067.006.097.016ZM36.25 22.965c-1.037 2.34-2.415 4.39-4.005 6.315-.493.585-1.09.687-1.536.256-.506-.503-.375-1.025.035-1.52 1.35-1.628 2.606-3.325 3.321-5.33.347-.946.486-1.982.61-2.971.081-.626.257-1.08.904-1.13.678-.04 1.099.365 1.052 1.037-.064 1.113-.246 2.22-.382 3.343ZM22.823 51.587c-.79 1.927-1.757 3.725-3.082 5.328-.14.158-.285.331-.44.483-.446.448-.946.566-1.423.124-.491-.446-.411-.969-.012-1.432 2.123-2.427 3.351-5.269 3.796-8.452.086-.59.448-.945 1.058-.888.626.063.975.477.873 1.113-.235 1.26-.51 2.49-.77 3.724ZM50.087 46.147c-1.463 4.102-3.288 6.994-6.345 8.976a6.253 6.253 0 0 1-1.427.724c-.507.185-1.048-.02-1.151-.556-.06-.365.119-1.025.386-1.156 4.77-2.503 6.528-6.864 7.354-11.825.011-.082.023-.164.05-.24.111-.616.454-1.013 1.104-.924.665.094.948.554.814 1.23-.325 1.522-.64 3.013-.785 3.77ZM36.342 55.694a28.177 28.177 0 0 1-3.685 7.01c-.36.495-.792.757-1.382.449-.505-.262-.62-.715-.438-1.237.07-.2.23-.367.355-.53 2.332-3.421 4.032-7.08 4.372-11.28.039-.503.032-1.022.04-1.535.012-.667.269-1.112.971-1.125.718-.008.96.472.99 1.12.05 2.202-.307 4.35-.988 6.452l-.235.676ZM47.188 29.787c-1.518 3.377-1.989 6.93-1.597 10.595.084.786-.21 1.286-.821 1.331-.755.064-1.052-.4-1.128-1.064-.46-3.911.057-7.69 1.599-11.334.058-.117.13-.23.194-.363.29-.587.73-.778 1.322-.52.52.216.69.757.43 1.355Z"/></g><defs><clipPath id="a"><path fill="#fff" transform="rotate(19.205 8.23 62.975)" d="M0 0h48.203v62.664H0z"/></clipPath></defs></svg>
